X:19090
T:Xiraldilla (CT 459)
R:Xiraldilla
C:Tradicional
S:Música Tradicional Asturiana, (C) Tello & Tito. Asturies, 2001.
S:http://pagina.de/MusTradAst <telloytito@asturies.org>
N:Xiraldilla, transcrita en Caldones, ayuntamiento de Xixón.
O:Caldones (Xixón)
A:Asturies
Z:Cancioneru de Torner 459
M:2/4
L:1/8
Q:1/4=160
W:Si tuviera namorada,
W:comu me diz la xente,
W:nin cantara, nin baillara,
W:tando mio amor ausente.
W:
W:Di-y que nun voi
W:que nun voi, que se vaya;
W:di-y que nun voi,
W:que nun toi namorada
K:G
|:g3g|gg gg|gg gg|gg gg|f2 d2:|
|cc cc|=f2 f_e|d2 dd|d2 d2|
 cc cc|=f2 f_e|dd dd|d2 d2||


